!!!!SEGMENT: Jom2014-Omnes_sancti_tui_quesumus.krn
!!!id: Jom2014
!!!AGN: Motet
!!!SCT: Nugent (1982)
!!!voices: 4
!!!COM: Jachet of Mantua
!!!OTL: Omnes sancti tui quesumus
**kern	**text	**kern	**text	**kern	**text	**kern	**text
*part4	*part4	*part3	*part3	*part2	*part2	*part1	*part1
*staff4	*staff4	*staff3	*staff3	*staff2	*staff2	*staff1	*staff1
*I"Bassus	*	*I"Tenor	*	*I"Altus	*	*I"Superius	*
*I'B	*	*I'T	*	*I'A	*	*I'S	*
*clefF4	*	*clefGv2	*	*clefGv2	*	*clefG2	*
*k[b-]	*	*k[b-]	*	*k[b-]	*	*k[b-]	*
*F:	*	*F:	*	*F:	*	*F:	*
*M2/1	*	*M2/1	*	*M2/1	*	*M2/1	*
*met(C|)	*	*met(C|)	*	*met(C|)	*	*met(C|)	*
!!section: Prima pars: Omnes sancti tui quesumus
!!!OMD: Prima pars: Omnes sancti tui quesumus
=1	=1	=1	=1	=1	=1	=1	=1
0FF	Om-	0F	Om-	0A	Om-	0cc	Om-
=2	=2	=2	=2	=2	=2	=2	=2
1C	-nes	1E	-nes	1G	-nes	1cc	-nes
1C	san-	1E	san-	1G	san-	1cc	san-
=3	=3	=3	=3	=3	=3	=3	=3
1BB-y	-cti	1F	-cti	1B-y	-cti	1dd	-cti
1BB-y	tu-	1F	tu-	1B-y	tu-	1dd	tu-
=4	=4	=4	=4	=4	=4	=4	=4
0GG	-i,	0G	-i,	0B-y	-i,	0dd	-i,
=5	=5	=5	=5	=5	=5	=5	=5
1.C	que-	1.E	que-	1.G	que-	1.cc	que-
2FF	-su-	2C	-su-	2F	-su-	2a	-su-
=6	=6	=6	=6	=6	=6	=6	=6
1FF	-mus	2C	-mus	2F	-mus	1a	-mus
.	.	2.F	Do-	2c	Do-	.	.
[1BB-y	Do-	.	.	2B-y	-mi-	[1f	Do-
.	.	4E	.	.	.	.	.
.	.	4D	.	[2d	.	.	.
.	.	4C	.	.	.	.	.
=7	=7	=7	=7	=7	=7	=7	=7
2BB-]	.	4D	.	2d]	.	1f]	.
.	.	4E	.	.	.	.	.
2AA	.	1F	.	2c	.	.	.
1GG	-mi-	.	.	1B-y	-ne,	1g	-mi-
.	.	2E	-mi-	.	.	.	.
=8	=8	=8	=8	=8	=8	=8	=8
[0FF	-ne,	0F	-ne,	2r	.	2a	-ne,
.	.	.	.	1A	que-	1cc	que-
.	.	.	.	2F	-su-	2a	-su-
=9	=9	=9	=9	=9	=9	=9	=9
0FF]	.	2r	.	1F	-mus,	2a	-mus
.	.	1c	que-	.	.	1a	Do-
.	.	.	.	2r	.	.	.
.	.	2A	-su-	[2c	que-	2f	-mi-
=10	=10	=10	=10	=10	=10	=10	=10
1.F	que-	1A	-mus	2c]	.	2f	-ne,
.	.	.	.	2A	-su-	1ff	que-
.	.	[1F	Do-	2A	-mus	.	.
2BB-y	-su-	.	.	[2B-y	Do-	2dd	-su-
=11	=11	=11	=11	=11	=11	=11	=11
0BB-y	-mus	0F_	.	4B-]	.	2dd	-mus
.	.	.	.	4c	.	.	.
.	.	.	.	1d	.	1b-y	Do-
.	.	.	.	4c	.	2b-y	-mi-
.	.	.	.	4B-y	.	.	.
=12	=12	=12	=12	=12	=12	=12	=12
1.F	Do-	0F_	.	2.A	-mi-	2cc	.
.	.	.	.	.	.	4f	.
.	.	.	.	4B-y	.	4g	.
.	.	.	.	1c	-ne,	4a	.
.	.	.	.	.	.	4b-y	.
2E	.	.	.	.	.	[2cc	.
=13	=13	=13	=13	=13	=13	=13	=13
1D	.	1F]	.	2r	.	2cc]	.
.	.	.	.	1F	Do-	2bni	.
1C	-mi-	1G	-mi-	.	.	[1cc	-ne,
.	.	.	.	2E	-mi-	.	.
=14	=14	=14	=14	=14	=14	=14	=14
1.FF	-ne,	1.A	-ne	0F	-ne,	0cc_	.
[2F	Do-	4F	.	.	.	.	.
.	.	4G	.	.	.	.	.
=15	=15	=15	=15	=15	=15	=15	=15
2F]	.	4A	.	1C	.	1cc]	.
.	.	4B-y	.	.	.	.	.
2E	-mi-	1c	Do-	.	.	.	.
1D	-ne,	.	.	2r	.	1r	.
.	.	2Bni	-mi-	[2F	nos	.	.
=16	=16	=16	=16	=16	=16	=16	=16
2r	.	1.c	-ne,	2F]	.	0r	.
1C	nos	.	.	2G	u-	.	.
.	.	.	.	2A	-bi-	.	.
2D	u-	4B-y	.	2F	-que	.	.
.	.	4A	.	.	.	.	.
=17	=17	=17	=17	=17	=17	=17	=17
2E	-bi-	1G	.	2.c	ad-	1r	.
2C	-que	.	.	.	.	.	.
.	.	.	.	4B-y	.	.	.
[1F	ad-	1r	.	4A	.	2r	.
.	.	.	.	4G	.	.	.
.	.	.	.	[2A	.	[2cc	nos
=18	=18	=18	=18	=18	=18	=18	=18
1F]	.	0r	.	2A]	.	2cc]	.
.	.	.	.	4G	.	2dd	u-
.	.	.	.	4F	.	.	.
1E	-ju-	.	.	1G	.	2ee	-bi-
.	.	.	.	.	.	2cc	-que
=19	=19	=19	=19	=19	=19	=19	=19
2.D	-vent	1r	.	1A	-ju-	2.ff	ad-
4C	.	.	.	.	.	4ee	.
4BB-y	.	2r	.	[1D	-vent,	4dd	.
4AA	.	.	.	.	.	4cc	.
[2BB-y	.	[2F	nos	.	.	[2dd	.
=20	=20	=20	=20	=20	=20	=20	=20
2BB-]	.	2F]	.	2D]	.	2dd]	.
4AA	.	2G	u-	2E	nos	4cc	.
4GG	.	.	.	.	.	4b-y	.
[1FF	.	2A	-bi-	2F	u-	2.cc	-ju-
.	.	2F	-que	[2c	-bi-	.	.
.	.	.	.	.	.	4b-y	.
=21	=21	=21	=21	=21	=21	=21	=21
2FF]	.	2.c	ad-	4c]	.	4a	.
.	.	.	.	4B-y	.	4g	.
2.F	nos	.	.	4A	.	2a	.
.	.	4B-y	.	4G	.	.	.
.	.	4A	.	2A	.	2f	-vent,
4E	.	4G	.	.	.	.	.
4D	.	[2A	.	[2F	-que	[2ff	ad-
4C	.	.	.	.	.	.	.
=22	=22	=22	=22	=22	=22	=22	=22
1D	.	2A]	.	4F]	.	2ff]	.
.	.	.	.	4G	.	.	.
.	.	4G	.	4A	.	4ee	.
.	.	4F	.	4B-y	.	4dd	.
2C	u-	[1G	.	2c	.	2ee	.
2GG	-bi-	.	.	2B-y	ad-	[2dd	.
=23	=23	=23	=23	=23	=23	=23	=23
1C	-que	2G]	.	2G	-ju-	4dd]	.
.	.	.	.	.	.	4cc	.
.	.	2E	-ju-	1A	-vent,	1cc	-ju-
1D	ad-	1F	-vent,	.	.	.	.
.	.	.	.	4G	.	2bni	.
.	.	.	.	4F	.	.	.
=24	=24	=24	=24	=24	=24	=24	=24
0C	-ju-	2.G	ad-	2E	.	[0cc	-vent,
.	.	.	.	2G	ut	.	.
.	.	8GL	-ju-	.	.	.	.
.	.	8FJ	.	.	.	.	.
.	.	1E	-vent,	2G	dum	.	.
.	.	.	.	2G	e-	.	.
=25	=25	=25	=25	=25	=25	=25	=25
0FF	-vent,	2r	.	2A	-o-	1cc]	.
.	.	2C	ut	2F	-rum	.	.
.	.	2C	dum	1c	me-	1r	.
.	.	2C	e-	.	.	.	.
=26	=26	=26	=26	=26	=26	=26	=26
2r	.	2D	-o-	2B-y	-ri-	0r	.
2FF	ut	2C	-rum	2.A	-ta	.	.
2FF	dum	1c	me-	.	.	.	.
.	.	.	.	4G	.	.	.
2FF	e-	.	.	4F	.	.	.
.	.	.	.	4E	.	.	.
=27	=27	=27	=27	=27	=27	=27	=27
2GG	-o-	2B-y	-ri-	2D	.	2r	.
2FF	-rum	2.A	-ta	2.F	re-	2cc	ut
[1F	me-	.	.	.	.	2cc	dum
.	.	4G	.	4G	.	.	.
.	.	4F	.	[2A	-co-	2cc	e-
.	.	4E	.	.	.	.	.
=28	=28	=28	=28	=28	=28	=28	=28
2F]	.	2D	.	4A]	.	2dd	-or-
.	.	.	.	4B-y	.	.	.
2E	-ri-	1G	re-	1c	.	2cc	-um
1D	-ta	.	.	.	.	1ff	me-
.	.	2F	-co-	2Bni	-li-	.	.
=29	=29	=29	=29	=29	=29	=29	=29
2C	.	2G	-li-	2c	-mus	2ee	-ri-
2D	re-	2F	-mus,	2A	.	2.dd	-ta
2GG	-co-	2G	re-	2r	.	.	.
.	.	.	.	.	.	4cc	.
[2BB-y	.	2F	-co-	[2D	pa-	4b-y	.
.	.	.	.	.	.	4a	.
=30	=30	=30	=30	=30	=30	=30	=30
2BB-]	.	2D	-li-	2D]	.	2g	.
2AA	.	4E	.	2C	-tro-	2a	re-
.	.	4F	.	.	.	.	.
1GG	-li-	1G	.	2.D	-ci-	2.b-y	-co-
.	.	.	.	4E	-ni-	4b-y	-li-
=31	=31	=31	=31	=31	=31	=31	=31
1FF	-mus	0C	-mus	2F	-a	2b-y	-mus,
.	.	.	.	1F	sen-	1a	re-
1r	.	.	.	.	.	.	.
.	.	.	.	2E	-ti-	2g	-co-
=32	=32	=32	=32	=32	=32	=32	=32
0r	.	2r	.	1D	-a-	2.a	-li-
.	.	1F	pa-	.	.	.	.
.	.	.	.	.	.	4b-y	.
.	.	.	.	1C	-mus,	[1cc	-mus
.	.	2E	-tro-	.	.	.	.
=33	=33	=33	=33	=33	=33	=33	=33
2r	.	2.F	-ci-	0r	.	0cc_	.
1F	pa-	.	.	.	.	.	.
.	.	4G	-ni-	.	.	.	.
.	.	2A	-a	.	.	.	.
2E	-tro-	2G	sen-	.	.	.	.
=34	=34	=34	=34	=34	=34	=34	=34
2.F	-ci-	1A	-ti-	1r	.	0cc_	.
4G	.	.	.	.	.	.	.
2A	-ni-	2.F	-a-	2r	.	.	.
[2F	-a	.	.	[2A	pa-	.	.
.	.	8EL	.	.	.	.	.
.	.	8DJ	.	.	.	.	.
=35	=35	=35	=35	=35	=35	=35	=35
2F]	.	1C	-mus,	2A]	.	1cc]	.
2E	sen-	.	.	2G	-tro-	.	.
1D	-ti-	2r	.	2.A	-ci-	2r	.
.	.	[2A	pa-	.	.	[2f	pa-
.	.	.	.	4B-y	.	.	.
=36	=36	=36	=36	=36	=36	=36	=36
1C	-a-	2A]	.	[0c	.	2f]	.
.	.	2G	-tro-	.	.	2e	-tro-
[1FF	-mus,	2.A	-ci-	.	.	2.f	-ci-
.	.	4B-y	.	.	.	4g	.
=37	=37	=37	=37	=37	=37	=37	=37
2FF]	.	2c	-ni-	1c]	.	2a	-ni-
1F	sen-	2F	-a	.	.	2a	-a
.	.	1G	sen-	1C	-a	2g	sen-
2E	-ti-	.	.	.	.	[2cc	-ti-
=38	=38	=38	=38	=38	=38	=38	=38
1D	-a-	2A	-ti-	2r	.	2cc]	.
.	.	1F	-a-	2F	sen-	2bni	-a-
1C	.	.	.	1G	-ti-	[1cc	-mus:
.	.	2E	.	.	.	.	.
=39	=39	=39	=39	=39	=39	=39	=39
0FF	-mus:	2.F	.	2.A	-a-	0cc]	.
.	.	4G	.	4G	.	.	.
.	.	1A	.	1F	.	.	.
=40	=40	=40	=40	=40	=40	=40	=40
0C	et	2.G	-mus:	1E	-mus:	0cc	et
.	.	4F	.	.	.	.	.
.	.	1E	.	1G	et	.	.
=41	=41	=41	=41	=41	=41	=41	=41
1GG	pa-	1G	et	0B-y	pa-	0dd	pa-
[1BB-y	-cem	[1F	pa-	.	.	.	.
=42	=42	=42	=42	=42	=42	=42	=42
1BB-]	.	1F]	.	1B-y	-cem	1dd	-cem
1BB-y	tu-	1F	-cem	1B-y	tu-	1dd	tu-
=43	=43	=43	=43	=43	=43	=43	=43
1FF	-am	2.F	tu-	2A	-am	2cc	.
.	.	.	.	2F	no-	1ff	.
.	.	4E	.	.	.	.	.
1r	.	1D	.	2A	-stris	.	.
.	.	.	.	2B-y	con-	4ee	.
.	.	.	.	.	.	4dd	.
=44	=44	=44	=44	=44	=44	=44	=44
2r	.	1C	-am	1c	-ce-	1ee	-am
2C	no-	.	.	.	.	.	.
2D	-stris	1r	.	2B-y	-de	1r	.
2E	con-	.	.	2c	tem-	.	.
=45	=45	=45	=45	=45	=45	=45	=45
1F	-ce-	1r	.	2A	-po-	0r	.
.	.	.	.	2A	-ri-	.	.
2E	-de	2r	.	2G	.	.	.
2F	tem-	2F	no-	[2A	.	.	.
=46	=46	=46	=46	=46	=46	=46	=46
2D	-po-	2A	-stris	2A]	.	1r	.
2D	-ri-	2B-y	con-	4G	.	.	.
.	.	.	.	4F	.	.	.
1C	-bus,	1c	-ce-	[1G	-bus	2r	.
.	.	.	.	.	.	2cc	no-
=47	=47	=47	=47	=47	=47	=47	=47
2r	.	2B-y	-de	1G]	.	2dd	-stris
2C	no-	2c	tem-	.	.	2ee	con-
2.F	-stris	[1A	-po-	1r	.	1ff	-ce-
4G	.	.	.	.	.	.	.
=48	=48	=48	=48	=48	=48	=48	=48
4A	.	2A]	.	1r	.	2ee	-de
4B-y	.	.	.	.	.	.	.
1c	.	2A	-ri-	.	.	2ff	tem-
.	.	1G	-bus,	2r	.	2.dd	-po-
2B-y	con-	.	.	2G	tem-	.	.
.	.	.	.	.	.	4dd	-ri-
=49	=49	=49	=49	=49	=49	=49	=49
2.A	-ce-	2.c	tem-	2A	-po-	2cc	-bus
.	.	.	.	2.c	-ri-	4f	.
4G	.	4B-y	.	.	.	4g	.
2.F	.	4A	.	.	.	4a	.
.	.	4G	.	4B-y	.	4b-y	.
.	.	[2F	.	4A	.	2cc	.
4E	.	.	.	4G	.	.	.
=50	=50	=50	=50	=50	=50	=50	=50
1D	-de	4F]	.	1F	.	4dd	.
.	.	4G	.	.	.	4ee	.
.	.	4A	.	.	.	4ff	.
.	.	4B-y	.	.	.	4dd	.
1C	tem-	2c	.	2G	.	4ee	.
.	.	.	.	.	.	4ff	.
.	.	2G	-po-	[2c	-ri-	[2gg	tem-
=51	=51	=51	=51	=51	=51	=51	=51
2F	-po-	2A	.	4c]	.	4gg]	.
.	.	.	.	4A	.	4ff	.
2BB-y	.	2B-y	.	2d	.	1ff	-po-
1C	-ri-	1G	-ri-	1c	-bus:	.	.
.	.	.	.	.	.	2ee	-ri-
=52	=52	=52	=52	=52	=52	=52	=52
0FF	-bus:	[0F	-bus:	2r	.	[0ff	-bus:
.	.	.	.	2C	et	.	.
.	.	.	.	1c	ab	.	.
=53	=53	=53	=53	=53	=53	=53	=53
2r	.	1F]	.	2c	ec-	0ff]	.
2FF	et	.	.	1c	-cle-	.	.
1F	ab	1r	.	.	.	.	.
.	.	.	.	2c	-si-	.	.
=54	=54	=54	=54	=54	=54	=54	=54
2F	ec-	2r	.	2.A	-a	0r	.
1F	-cle-	2F	et	.	.	.	.
.	.	.	.	4F	.	.	.
.	.	1c	ab	1A	tu-	.	.
2F	-si-	.	.	.	.	.	.
=55	=55	=55	=55	=55	=55	=55	=55
2E	-a	2c	ec-	0G	-a	0r	.
2.C	tu-	1c	-cle-	.	.	.	.
4D	.	.	.	.	.	.	.
4E	.	2c	-si-	.	.	.	.
4F	.	.	.	.	.	.	.
=56	=56	=56	=56	=56	=56	=56	=56
4G	.	2B-y	-a	0r	.	0r	.
4A	.	.	.	.	.	.	.
2.B-y	.	2.G	tu-	.	.	.	.
4A	.	4A	.	.	.	.	.
[2G	.	4B-y	.	.	.	.	.
.	.	4c	.	.	.	.	.
=57	=57	=57	=57	=57	=57	=57	=57
2G]	.	4d	.	0r	.	2r	.
.	.	4G	.	.	.	.	.
4F	.	1c	.	.	.	2cc	et
4E	.	.	.	.	.	.	.
1D	-a	.	.	.	.	1ff	ab
.	.	2Bni	.	.	.	.	.
=58	=58	=58	=58	=58	=58	=58	=58
0r	.	1c	-a	1F	et	2ff	ec-
.	.	.	.	.	.	1ff	-cle-
.	.	1F	.	1c	ab	.	.
.	.	.	.	.	.	2ff	-si-
=59	=59	=59	=59	=59	=59	=59	=59
0r	.	0r	.	2c	ec-	2.ee	-a
.	.	.	.	1c	-cle-	.	.
.	.	.	.	.	.	4cc	.
.	.	.	.	.	.	1ee	.
.	.	.	.	2c	-si-	.	.
=60	=60	=60	=60	=60	=60	=60	=60
0r	.	0r	.	1.B-y	-a	2dd	.
.	.	.	.	.	.	2.g	tu-
.	.	.	.	.	.	4a	.
.	.	.	.	[2G	tu-	4b-y	.
.	.	.	.	.	.	4cc	.
=61	=61	=61	=61	=61	=61	=61	=61
0r	.	0r	.	4G]	.	4dd	.
.	.	.	.	4A	.	4cc	.
.	.	.	.	4B-y	.	4dd	.
.	.	.	.	4c	.	4ee	.
.	.	.	.	4d	.	4ff	.
.	.	.	.	4G	.	4ee	.
.	.	.	.	[2c	.	4dd	.
.	.	.	.	.	.	4cc	.
=62	=62	=62	=62	=62	=62	=62	=62
1r	.	2r	.	2c]	.	1dd	.
.	.	2G	cunc-	2Bni	.	.	.
[1C	cunc-	2G	-tam	2c	-a	1cc	-a
.	.	2E	re-	2G	cunc-	.	.
=63	=63	=63	=63	=63	=63	=63	=63
2C]	.	2G	-pel-	2G	-tam	2r	.
2C	-tam	4C	.	2E	re-	2cc	cunc-
.	.	4D	.	.	.	.	.
2AA	re-	2E	.	1A	-pel-	2cc	-tam
[2D	-pel-	[2F	-le	.	.	2a	re-
=64	=64	=64	=64	=64	=64	=64	=64
2D]	.	2F]	.	2F	-le	1dd	-pel-
2BB-y	-le	2D	ne-	2.G	ne-	.	.
[1C	ne-	2.E	-qui-	.	.	[1cc	-le
.	.	.	.	4F	.	.	.
.	.	.	.	4E	.	.	.
.	.	4F	.	4D	.	.	.
=65	=65	=65	=65	=65	=65	=65	=65
1C]	.	2G	-ti-	1E	.	2cc]	.
.	.	1A	-am,	.	.	2cc	ne-
2.D	-qui-	.	.	2.F	-qui-	2.a	-qui-
.	.	4G	.	.	.	.	.
4D	-ti-	4F	.	4F	-ti-	4b-y	-ti-
=66	=66	=66	=66	=66	=66	=66	=66
1C	-am.	0G	ne-	0E	-am.	0cc	-am.
2r	.	.	.	.	.	.	.
2C	I-	.	.	.	.	.	.
=67	=67	=67	=67	=67	=67	=67	=67
2D	-ter	2.F	-qui-	2r	.	1r	.
1F	ac-	.	.	2F	I-	.	.
.	.	8EL	-ti-	.	.	.	.
.	.	8DJ	.	.	.	.	.
.	.	1C	-am.	2A	-ter	2r	.
2E	.	.	.	[2c	ac-	2cc	I-
=68	=68	=68	=68	=68	=68	=68	=68
1D	.	2r	.	2c]	.	2dd	-ter
.	.	2F	I-	2B-y	.	1ff	ac-
1C	-tus	2A	-ter	1c	.	.	.
.	.	[2c	ac-	.	.	2ee	.
=69	=69	=69	=69	=69	=69	=69	=69
1r	.	2c]	.	1G	-tus	1dd	.
.	.	2Bni	.	.	.	.	.
2r	.	1c	-tus	1r	.	1cc	-tus
2C	et	.	.	.	.	.	.
=70	=70	=70	=70	=70	=70	=70	=70
2D	vo-	1A	.	2r	.	1r	.
2F	-lun-	.	.	2F	et	.	.
2F	-ta-	1r	.	2A	vo-	2r	.
2E	-tes	.	.	2c	-lun-	2cc	et
=71	=71	=71	=71	=71	=71	=71	=71
1D	no-	2r	.	2c	-ta-	2dd	vol-
.	.	2F	et	2B-y	-tes	2ff	-un-
1C	-stras	2A	vo-	1c	no-	2ff	-ta-
.	.	2c	-lun-	.	.	2ee	-tes
=72	=72	=72	=72	=72	=72	=72	=72
1r	.	2c	-ta-	1G	-stras	1dd	no-
.	.	2Bni	-tes	.	.	.	.
1C	et	1c	no-	2r	.	1cc	-stras
.	.	.	.	2E	et	.	.
=73	=73	=73	=73	=73	=73	=73	=73
1.FF	om-	1A	-stras	1.F	om-	2r	.
.	.	.	.	.	.	2cc	et
.	.	2r	.	.	.	2.cc	om-
2FF	-ni-	2A	et	2F	-ni-	.	.
.	.	.	.	.	.	4cc	-ni-
=74	=74	=74	=74	=74	=74	=74	=74
1FF	-um	2.A	om-	1F	-um	1cc	-um
.	.	4A	-ni-	.	.	.	.
[1C	fa-	2G	-um	2E	fa-	[1cc	fa-
.	.	[2E	fa-	[2G	-mu-	.	.
=75	=75	=75	=75	=75	=75	=75	=75
2C]	.	2E]	.	2G]	.	2cc]	.
2C	-mu-	2E	-mu-	2A	-lo-	2cc	-mu-
2.BB-y	-lo-	[1F	-lo-	1B-y	-rum	1dd	-lo-
8AAL	.	.	.	.	.	.	.
8GGJ	.	.	.	.	.	.	.
=76	=76	=76	=76	=76	=76	=76	=76
1FF	-rum	2F]	.	1A	tu-	1cc	-rum
.	.	2F	-rum	.	.	.	.
[1C	tu-	[1E	tu-	2.G	-o-	2.cc	tu-
.	.	.	.	4E	.	4dd	.
=77	=77	=77	=77	=77	=77	=77	=77
2C]	.	2E]	.	2G	.	2ee	.
2AA	.	2C	.	1A	.	1ff	-o-
1BB-y	-o-	1D	-o-	.	.	.	.
.	.	.	.	2G	.	4ee	.
.	.	.	.	.	.	4dd	.
=78	=78	=78	=78	=78	=78	=78	=78
[0AA	-rum	[0E	-rum	0A	-rum	0cc	-rum
=79	=79	=79	=79	=79	=79	=79	=79
0AA]	.	0E]	.	2r	.	2r	.
.	.	.	.	1A	in	1cc	in
.	.	.	.	2A	sa-	2cc	sa-
=80	=80	=80	=80	=80	=80	=80	=80
0r	.	0r	.	2G	-lu-	2b-y	-lu-
.	.	.	.	2F	-tis	2a	-tis
.	.	.	.	1B-y	tu-	1dd	tu-
=81	=81	=81	=81	=81	=81	=81	=81
2r	.	2r	.	2A	-e	1cc	-e
1F	in	1A	in	2F	.	.	.
.	.	.	.	1c	in-	1r	.
2F	sa-	2A	sa-	.	.	.	.
=82	=82	=82	=82	=82	=82	=82	=82
2E	-lu-	2G	-lu-	2c	-sa-	0r	.
2D	-tis	2F	-tis	1d	-lu-	.	.
1G	tu-	1B-y	tu-	.	.	.	.
.	.	.	.	4c	.	.	.
.	.	.	.	4B-y	.	.	.
=83	=83	=83	=83	=83	=83	=83	=83
[0F	-e	1.A	-e	0c	-tis	2r	.
.	.	.	.	.	.	2f	pro-
.	.	.	.	.	.	[1a	-spe-
.	.	2F	pro-	.	.	.	.
=84	=84	=84	=84	=84	=84	=84	=84
1F]	.	2c	-spe-	0r	.	2a]	.
.	.	2c	-ri-	.	.	2a	-ri-
1BB-y	pro-	1d	-ta-	.	.	1b-y	-ta-
=85	=85	=85	=85	=85	=85	=85	=85
1.F	-spe-	1.c	-te	2r	.	1a	-te,
.	.	.	.	2F	pro-	.	.
.	.	.	.	2A	-spe-	1r	.
2F	-ri-	[2d	di-	2A	-ri-	.	.
=86	=86	=86	=86	=86	=86	=86	=86
1G	-ta-	2d]	.	1B-y	-ta-	0r	.
.	.	4c	.	.	.	.	.
.	.	4B-y	.	.	.	.	.
[1F	.	2.c	-spo-	2.A	.	.	.
.	.	4B-y	.	4G	.	.	.
=87	=87	=87	=87	=87	=87	=87	=87
2F]	.	4A	.	4F	.	2r	.
.	.	4G	.	4E	.	.	.
4E	.	1A	.	1F	.	2f	pro-
4D	.	.	.	.	.	.	.
1C	.	.	.	.	.	2cc	-spe-
.	.	2G	-ne,	2E	.	2cc	-ri-
=88	=88	=88	=88	=88	=88	=88	=88
1BB-y	-te	1B-y	pro-	1F	-te	1dd	-ta-
2F	di-	2A	-spe-	2r	.	2cc	-te
2F	-spo-	2c	-ri-	2F	pro-	[2ff	di-
=89	=89	=89	=89	=89	=89	=89	=89
1G	.	2B-y	-ta-	2B-y	-spe-	2ff]	.
.	.	2G	.	2B-y	-ri-	2ee	.
2F	.	2A	-te	1c	-ta-	2ff	.
2C	.	[2G	di-	.	.	2ee	-spo-
=90	=90	=90	=90	=90	=90	=90	=90
2D	.	4G]	.	2A	-te	1dd	-ne:
.	.	4F	.	.	.	.	.
2BB-y	.	1F	-spo-	2B-y	di-	.	.
1C	.	.	.	1G	-spo-	[1cc	.
.	.	2E	.	.	.	.	.
=91	=91	=91	=91	=91	=91	=91	=91
1FF	-ne:	1F	-ne:	1A	-ne:	1cc]	.
1FF	et	1A	et	1F	et	2r	.
.	.	.	.	.	.	2cc	et
=92	=92	=92	=92	=92	=92	=92	=92
1BB-y	be-	1B-y	be-	1F	be-	1dd	be-
[1BB-y	-ne-	[1d	-ne-	[1B-y	-ne-	[1ff	-ne-
=93	=93	=93	=93	=93	=93	=93	=93
2BB-]	.	2d]	.	2B-]	.	2ff]	.
2BB-y	-fa-	2d	-fac-	2B-y	-fac-	2dd	-fac-
2C	-cto-	2c	-to-	2A	-to-	2ee	-to-
2C	-ri-	2c	-ri-	[2G	-ri-	2ee	-ri-
=94	=94	=94	=94	=94	=94	=94	=94
1D	-bus	1A	-bus	2G]	.	0dd	-bus
.	.	.	.	2F#i	.	.	.
1GG	.	2.B-y	no-	1G	-bus	.	.
.	.	4A	.	.	.	.	.
=95	=95	=95	=95	=95	=95	=95	=95
1.C	no-	4G	.	1E	.	2.cc	no-
.	.	4F	.	.	.	.	.
.	.	2G	-stris,	.	.	.	.
.	.	.	.	.	.	4b-y	.
.	.	2E	be-	2r	.	2g	.
4BB-y	.	2F	-ne-	2C	no-	2a	.
4AA	.	.	.	.	.	.	.
=96	=96	=96	=96	=96	=96	=96	=96
1GG	.	1G	-fac-	2D	.	1b-y	.
.	.	.	.	2E	.	.	.
1FF	-stris	2.c	-to-	[1F	-stris	2a	.
.	.	.	.	.	.	2f	-stris
.	.	4B-y	.	.	.	.	.
=97	=97	=97	=97	=97	=97	=97	=97
0r	.	2A	-ri-	2F]	.	2a	sem-
.	.	2G	-bus	2G	et	2b-y	-pi-
.	.	[1F	no-	2A	be-	[1cc	-ter-
.	.	.	.	2F	-ne-	.	.
=98	=98	=98	=98	=98	=98	=98	=98
0r	.	2F]	.	2A	-fa-	2cc]	.
.	.	4E	.	2B-y	-cto-	2dd	.
.	.	4D	.	.	.	.	.
.	.	1C	-stris	2.c	-ri-	2ee	.
.	.	.	.	.	.	2cc	-na
.	.	.	.	8B-yL	.	.	.
.	.	.	.	8AJ	.	.	.
=99	=99	=99	=99	=99	=99	=99	=99
2r	.	0r	.	1G	-bus	2dd	bo-
2C	sem-	.	.	.	.	2ee	.
2D	-pi-	.	.	2F	no-	2ff	-na
2E	.	.	.	2G	.	4ee	.
.	.	.	.	.	.	4dd	.
=100	=100	=100	=100	=100	=100	=100	=100
1F	-ter-	1r	.	2A	.	2cc	.
.	.	.	.	2.c	.	2a	re-
1FF	-na,	2r	.	.	.	1cc	-tri-
.	.	.	.	4B-y	.	.	.
.	.	2C	sem-	[2A	.	.	.
=101	=101	=101	=101	=101	=101	=101	=101
1r	.	2D	-pi-	2A]	.	1b-y	-bu-
.	.	2E	-ter-	2G	.	.	.
2r	.	[1F	-na	1A	-stris	1a	-e,
2FF	sem-	.	.	.	.	.	.
=102	=102	=102	=102	=102	=102	=102	=102
2AA	-pi-	2F]	.	0r	.	0r	.
2BB-y	-ter-	2G	bo-	.	.	.	.
[1C	-na	2A	-na	.	.	.	.
.	.	2G	re-	.	.	.	.
=103	=103	=103	=103	=103	=103	=103	=103
2C]	.	1B-y	-tri-	0r	.	0r	.
2D	bo-	.	.	.	.	.	.
2E	-na	1c	.	.	.	.	.
2C	re-	.	.	.	.	.	.
=104	=104	=104	=104	=104	=104	=104	=104
2D	-tri-	2B-y	-bu-	1r	.	1r	.
2E	-bu-	4A	.	.	.	.	.
.	.	4G	.	.	.	.	.
1F	-e,	1A	-e,	2r	.	2r	.
.	.	.	.	2c	sem-	2f	sem-
=105	=105	=105	=105	=105	=105	=105	=105
2r	.	2r	.	2B-y	-pi-	2g	-pi-
2FF	sem-	2c	sem-	2A	-ter-	2a	-ter-
2GG	-pi-	2B-y	-pi-	2G	-na	2b-y	-na
2AA	-ter-	2A	-ter-	2F	bo-	2cc	bo-
=106	=106	=106	=106	=106	=106	=106	=106
2BB-y	-na	2G	-na	2F	-na	2dd	-na
2C	bo-	2G	bo-	2E	re-	2cc	re-
2D	-na	2.F	-na	2.D	-tri-	2.a	-tri-
2F	re-	.	.	.	.	.	.
.	.	4E	.	4E	.	4g	.
=107	=107	=107	=107	=107	=107	=107	=107
2F	-tri-	2D	re-	2.F	.	4a	.
.	.	.	.	.	.	4b-y	.
2E	-bu-	2C	-tri-	.	.	1cc	.
.	.	.	.	4G	.	.	.
1D	-e:	1F	-bu-	2A	.	.	.
.	.	.	.	[2F	-bu-	2bni	-bu-
=108	=108	=108	=108	=108	=108	=108	=108
0C	et	1.G	-e	2F]	.	0cc	-e:
.	.	.	.	4E	.	.	.
.	.	.	.	4D	.	.	.
.	.	.	.	1E	-e:	.	.
.	.	4F	.	.	.	.	.
.	.	4G	.	.	.	.	.
=109	=109	=109	=109	=109	=109	=109	=109
1.FF	om-	2A	.	2r	.	1.cc	et
.	.	1F	re-	1A	et	.	.
2FF	-ni-	2F	-tri-	2A	om-	2cc	om-
=110	=110	=110	=110	=110	=110	=110	=110
1FF	-bus	1F	-bu-	1A	-ni-	1cc	-ni-
1C	fi-	1G	-e:	1c	-bus	1ee	-bus
=111	=111	=111	=111	=111	=111	=111	=111
1.BB-y	-de-	1.B-y	et	1.d	fi-	1.ff	fi-
2BB-y	-li-	2A	om-	2d	-de-	2ff	-de-
=112	=112	=112	=112	=112	=112	=112	=112
1C	-bus	1G	-ni-	2.c	-li-	2ee	-li-
.	.	.	.	.	.	1cc	-bus
.	.	.	.	4B-y	.	.	.
1FF	de-	2.F	-bus	1A	-bus	.	.
.	.	.	.	.	.	[2dd	de-
.	.	4E	.	.	.	.	.
=113	=113	=113	=113	=113	=113	=113	=113
0GG	-fun-	1.D	fi-	2.G	de-	4dd]	.
.	.	.	.	.	.	4cc	.
.	.	.	.	.	.	1b-y	-fun-
.	.	.	.	8FL	.	.	.
.	.	.	.	8EJ	.	.	.
.	.	.	.	2D	.	.	.
.	.	4C	.	2E	-fun-	4a	.
.	.	4BB-y	.	.	.	4g	.
=114	=114	=114	=114	=114	=114	=114	=114
0FF	.	2C	.	1F	-ctis	2.a	.
.	.	2D	-de-	.	.	.	.
.	.	.	.	.	.	4b-y	.
.	.	1F	-li-	2C	.	[1cc	-ctis
.	.	.	.	[2F	re-	.	.
=115	=115	=115	=115	=115	=115	=115	=115
1C	.	1G	-bus	2F]	.	1cc]	.
.	.	.	.	2E	-qui-	.	.
1FF	-ctis	1F	re-	2D	-em	1r	.
.	.	.	.	2C	e-	.	.
=116	=116	=116	=116	=116	=116	=116	=116
2r	.	1F	-qui-	1D	-ter-	0r	.
1BB-y	re-	.	.	.	.	.	.
.	.	1F	-em	2C	-nam	.	.
2AA	.	.	.	[2F	con-	.	.
=117	=117	=117	=117	=117	=117	=117	=117
1GG	-qui-	1G	e-	2F]	.	0r	.
.	.	.	.	2E	.	.	.
[1FF	-em	1A	.	1F	-ce-	.	.
=118	=118	=118	=118	=118	=118	=118	=118
1FF]	.	1A	-ter-	0c	-de,	2r	.
.	.	.	.	.	.	1ff	re-
1C	e-	1G	.	.	.	.	.
.	.	.	.	.	.	2ee	-qui-
=119	=119	=119	=119	=119	=119	=119	=119
2D	-ter-	1F	.	2r	.	2dd	-em
2F	.	.	.	1f	re-	2.cc	e-
1C	-nam	1G	.	.	.	.	.
.	.	.	.	.	.	4g	.
.	.	.	.	2e	-qui-	[2cc	.
=120	=120	=120	=120	=120	=120	=120	=120
1r	.	0G	.	1d	-em	2cc]	.
.	.	.	.	.	.	2bni	-ter-
1C	con-	.	.	[1c	con-	1cc	-nam
=121	=121	=121	=121	=121	=121	=121	=121
2FF	.	0F	-nam	2c]	.	2a	con-
1BB-y	-ce-	.	.	1d	-ce-	2.b-y	-ce-
.	.	.	.	.	.	4a	.
2AA	.	.	.	2c	-de,	2f	.
=122	=122	=122	=122	=122	=122	=122	=122
2GG	.	2r	.	2B-y	A-	2g	-de,
2FF	.	1F	con-	2A	.	1.cc	A-
1C	-de,	.	.	1G	.	.	.
.	.	2E	.	.	.	.	.
=123	=123	=123	=123	=123	=123	=123	=123
1FF	A-	2D	-ce-	[0Fl	-men.	2.a	.
.	.	2C	-de,	.	.	.	.
.	.	.	.	.	.	8gL	.
.	.	.	.	.	.	8fJ	.
1BB-y	.	1D	A-	.	.	1b-y	.
=124	=124	=124	=124	=124	=124	=124	=124
00FFl	-men.	00Cl	-men.	00F]	.	00al	-men.
==	==	==	==	==	==	==	==
*-	*-	*-	*-	*-	*-	*-	*-
!!!system-decoration: [*]
!!!RDF**kern: i = editorial accidental
!!!RDF**kern: l = terminal long
!!!ENC: Benjamin Ory
!!!END: 2021/9/9
!!!EED: Benjamin Ory
!!!EEV: 2021/9/9
!!!YEC: Copyright 2021 Benjamin Ory, All Rights Reserved
!!!ONB: Translated from MusicXML on 2021/05/17
